X: 1
T: the Golden Legs
C: Liz Carroll 1999
R: reel
Z: 2018 John Chambers <jc:trillian.mit.edu>
M: C|
L: 1/8
K: D
GFE |\
   "D"D2FD "Em"E2GE | "D"FDEF "G"GA B/c/d | "D"fdAf "A7"ecAe | "G"dBGd "A7"AECE |
y8|"D"D2FD "Em"E2GE | "D"FDEF "G"GA B/c/d | "Em"efge "A7"cAGE | EDCE "D"D :|
|: a^ga |\
   "D"fdd2 cded | "Em"g2fa gefd | "A7"cA A/A/A "Em"BG G/G/G |"D"AF F/F/F y
[1 "A7"GEEg | "D"fdd2 cded | "Em"g2fa gefd | "A7"cAA2 efge | cAGE D :|
[2 "A7"GEEA | "D"D2FD "Em"E2GE | "D"FDEF "G"GA B/c/d | "Em"efge "A7"cAGE | EDCE "D"D |]
